build/img/icon-beat-dzen1.svg

<svg width="46" height="46" viewBox="0 0 46 46" fill="none" xmlns="http://www.w3.org/2000/svg">
<path d="M36.9224 0C41.9365 0 46.0013 4.06478 46.0013 9.07895V36.9211C46.0013 41.9352 41.9365 46 36.9224 46H0.00132024L0 46L0.00198257 2.6226e-05L36.9224 0Z" fill="none"/>
<path d="M38.0308 23.3849C38.0308 23.2425 37.9052 23.1249 37.7501 23.1204C32.2189 22.9282 28.8537 22.2815 26.4955 20.1155C24.1348 17.9471 23.4332 14.8518 23.224 9.76215C23.219 9.61971 23.091 9.50439 22.9359 9.50439H22.291C22.1359 9.50439 22.0079 9.61971 22.003 9.76215C21.7938 14.8518 21.0897 17.9471 18.7315 20.1155C16.3732 22.2815 13.0082 22.9282 7.47692 23.1204C7.32183 23.1249 7.19629 23.2425 7.19629 23.3849V23.9796C7.19629 24.122 7.32183 24.2396 7.47692 24.2441C13.0082 24.4363 16.3732 25.083 18.7315 27.249C21.0873 29.4129 21.7913 32.4992 22.003 37.5707C22.0079 37.7132 22.1359 37.8285 22.291 37.8285H22.9384C23.0935 37.8285 23.2215 37.7132 23.2264 37.5707C23.4381 32.4992 24.1421 29.4129 26.4979 27.249C28.8562 25.083 32.2213 24.4386 37.7526 24.2441C37.9077 24.2396 38.0332 24.122 38.0332 23.9796V23.3849H38.0308Z" fill="white"/>
</svg>

<svg xmlns="http://www.w3.org/2000/svg" width="46" height="46" fill="none" viewBox="0 0 46 46"><path d="M36.922 0a9.08 9.08 0 0 1 9.08 9.079V36.92A9.08 9.08 0 0 1 36.921 46H0L.002 0z"/><path fill="#fff" d="M38.03 23.385c0-.143-.125-.26-.28-.265-5.531-.192-8.896-.838-11.254-3.004-2.361-2.169-3.063-5.264-3.272-10.354-.005-.142-.133-.258-.288-.258h-.645c-.155 0-.283.116-.288.258-.21 5.09-.913 8.185-3.271 10.354-2.359 2.166-5.724 2.812-11.255 3.004-.155.005-.28.122-.28.265v.595c0 .142.125.26.28.264 5.531.192 8.896.839 11.255 3.005 2.355 2.164 3.06 5.25 3.271 10.322.005.142.133.258.288.258h.647c.155 0 .284-.116.288-.258.212-5.072.916-8.158 3.272-10.322 2.358-2.166 5.723-2.81 11.255-3.005.155-.004.28-.122.28-.264v-.595z"/></svg>
